!!!!SEGMENT: pl-kk--kk-i-6--017_biandra-giovanni-pietro--alleluia-ave-maria.krn
!!!cenid: 16xx:972
!!!COM: Biandrà, Giovanni Pietro
!!!COM-rismid: pe30011487
!!!CDT: <1627->1627
!!!CNT: Italian
!!!OTL: Alleluia Ave Maria
!!!PDT:
!!!AGN: Sacred
!!!SMS-siglum: PL-Kk
!!!SMS-shelfmark: Kk.I.6
!!!SMS-shelfwork: 017 W
!!!SMS-variant:
!!!SMS-altvar:
!!!NIFC-rismid: 1001135746
!!!URL-scan: http://repozytorium.nifc.pl/skany/pl-kk-nut--i-6
!!!ONB-nifc: UWAGA: C (skan 0012-0013, s. 21-22), T (skan 0114-0115, s. 33-35), B (skan 0225-0226, s. 31-33) Następny utwór: Alleluia virga Jesse floruit
**kern	**text	**kern	**text	**kern	**text
*part3	*part3	*part2	*part2	*part1	*part1
*staff3	*staff3	*staff2	*staff2	*staff1	*staff1
*I"Baſsus.	*	*I"Tenor.	*	*I"Cantus.	*
*I'B	*	*I'T	*	*I'S	*
*clefF4	*	*clefC3	*	*clefC4	*
*k[]	*	*k[]	*	*k[]	*
*C:	*	*C:	*	*C:	*
*M2/1	*	*M2/1	*	*M2/1	*
*met(C|)	*	*met(C|)	*	*met(C|)	*
=1-	=1-	=1-	=1-	=1-	=1-
!LO:TX:a:t=P:problem:w źródle adnotacja "t(em)p(or)e Paschali." zapisana pod pięciolinią, przed kluczem	!	!	!	!LO:TX:a:t=P:problem:w źródle adnotacja "t(em)p(or)e Paschali." zapisana pod pięciolinią, przed kluczem	!
!LO:TX:b:t=t(em)p(or)e Paschali.	!	!	!	!LO:TX:b:t=t(em)p(or)e Paschali.	!
!LO:TX:a:t=P:problem:w źródle adnotacja "Joannis Petri Biandri R(oma)ni" zapisana na pięciolinii, przed kluczem	!	!	!	!LO:TX:a:t=P:problem:w źródle adnotacja "Joannis Petri Biandri R(oma)ni" zapisana na pięciolinii, przed kluczem	!
!LO:TX:a:i:t=Joannis Petri \nBiandri R(oma)ni	!	!	!	!LO:TX:a:i:t=Joannis Petri \nBiandri R(oma)ni	!
!LO:TX:t=P:problem:w źródle przed kluczem inicjał A	!	!	!	!LO:TX:t=P:problem:w źródle przed kluczem inicjał A	!
!	!	!LO:TX:t=P:problem:w źródle przed kluczem inicjał A	!	!	!
2r	.	1rc	.	1G	Al-
2GG/	Al-	.	.	.	.
*	*	*	*	*lig	*
2AA/	-le-	1c	Al-	1E	-le-
2C/	-lu-	.	.	.	.
=2-	=2-	=2-	=2-	=2-	=2-
1D	ia	2A/	-le-	1F	.
.	.	2B/	-lu-	.	.
*	*	*	*	*Xlig	*
1C	Al-	1.c	-ia	1G	.
=3-	=3-	=3-	=3-	=3-	=3-
!LO:TX:t=P:problem:all\middle or left:global	!	!	!	!	!
*	*	*	*	*lig	*
2F\	-le-	.	.	1A	.
*	*	*	*ij	*	*
2A\	-lu-	2c/	Al-	.	.
!	!	!LO:TX:t=P:problem:all\middle or left:global	!	!	!
1G	-ia	2d\	.	1B	.
.	.	2d\	-le-	.	.
*	*	*	*	*Xlig	*
=4-	=4-	=4-	=4-	=4-	=4-
*	*	*	*	*lig	*
2rC	.	2c/	-lu-	1c	.
*	*ij	*	*	*	*
!	!	!LO:TX:t=P:problem:4/middle or right:global	!	!	!
2C/	Al-	4G/	.	.	.
.	.	4A/	.	.	.
!LO:TX:t=P:problem:4/middle or right:global	!	!	!	!	!
4GG/	-le-	4B/	.	1B	.
4AA/	.	4c/	.	.	.
4BB/	.	4d\	.	.	.
!LO:SIC:v:t=custos D	!	!	!	!	!
4C/	.	4e\	.	.	.
*	*	*	*	*Xlig	*
!LO:LB:g=original	!	!	!	!	!
=5-	=5-	=5-	=5-	=5-	=5-
*	*	*	*	*lig	*
1D	.	2f\	.	1A	.
.	.	1d	.	.	.
1E	-lu-	.	.	1G	.
!	!	!LO:SIC:v:t=custos d	!	!	!
.	.	2c/	.	.	.
*	*	*	*	*Xlig	*
!	!	!LO:LB:g=original	!	!	!
=6-	=6-	=6-	=6-	=6-	=6-
!	!	!	!	!LO:SIC:v:t=custos A	!
1D	-ia	2d\	.	1F	.
.	.	2d\	.	.	.
!	!	!	!	!LO:LB:g=original	!
2rC	.	2e\	.	1A	-lu-
2AA/	Al-	2c/	.	.	.
=7-	=7-	=7-	=7-	=7-	=7-
2BB/	.	1B;<	.	0G;	-ia
2GG/	.	.	.	.	.
!LO:TX:t=P:problem:kreska pseudotaktowa	!	!	!	!	!
1C	-le-	1c,<;>	-ia	.	.
*	*	*	*Xij	*	*
=8-	=8-	=8-	=8-	=8||	=8||
*	*	*	*	*lig	*
2.FF/	-lu-	2A/	Al-	1A	.
.	.	1d	-le-	.	.
4GG/	.	.	.	.	.
1AA	.	.	.	1E	.
.	.	2c/	-lu-	.	.
*	*	*	*	*Xlig	*
=9-	=9-	=9-	=9-	=9-	=9-
1D	-ia	2.d\	-ia	1F	.
*	*Xij	*	*	*	*
.	.	4c/	.	.	.
*	*	*	*	*lig	*
0r	.	4B/	.	1G	.
.	.	4G/	.	.	.
.	.	1g\	.	.	.
=10-	=10-	=10-	=10-	=10-	=10-
.	.	.	.	1D	.
!	!	!LO:TX:t=P:problem:♯below	!	!	!
.	.	2f#X\	.	.	.
*	*	*	*	*Xlig	*
2r	.	1g	.	1G	.
2G\	Al-	.	.	.	.
=11-	=11-	=11-	=11-	=11-	=11-
*	*	*	*	*lig	*
2D/	-le-	2r	.	1F	.
2F\	-lu-	1c	Al-	.	.
1C	-ia	.	.	1E	.
!	!	!LO:SIC:v:t=custos c	!	!	!
.	.	2c/	-le-	.	.
*	*	*	*	*Xlig	*
!	!	!LO:LB:g=original	!	!	!
=12-	=12-	=12-	=12-	=12-	=12-
2r	.	1c	-lu-	1F	.
*	*ij	*	*	*	*
!LO:SIC:v:t=custos BB	!	!	!	!	!
2F\	Al-	.	.	.	.
!LO:LB:g=original	!	!	!	!	!
2BB-X/	.	2B-X/	-ia	1D	.
2D\	.	2A/	.	.	.
=13-	=13-	=13-	=13-	=13-	=13-
1AA	-le-	1A	.	1E	.
*	*	*	*ij	*	*
1D	.	1A	Al-	1F	.
=14-	=14-	=14-	=14-	=14-	=14-
*lig	*	*	*	*	*
1C	.	0c	-le-	1G	.
*	*	*	*	*lig	*
1FF	.	.	.	1A	.
*Xlig	*	*	*	*	*
=15-	=15-	=15-	=15-	=15-	=15-
*lig	*	*	*	*	*
1GG	-lu-	1Bny	.	1G	.
*	*	*	*	*Xlig	*
*	*	*	*	*lig	*
1D	.	1d	.	1A	.
*Xlig	*	*	*	*	*
=16-	=16-	=16-	=16-	=16-	=16-
!	!	!	!	!LO:SIC:v:t=custos F	!
2GG/	-ia	2.d\	.	1G	.
2G\	Al-	.	.	.	.
.	.	4e\	.	.	.
*	*	*	*	*Xlig	*
!	!	!	!	!LO:LB:g=original	!
2.D/	-le-	2.fny\	.	1F	.
4E\	.	8e\L	.	.	.
.	.	8d\J	.	.	.
=17-	=17-	=17-	=17-	=17-	=17-
2.F\	-lu-	4c/	.	1A	.
.	.	4B/	.	.	.
.	.	4A/	.	.	.
8E\L	.	8G/L	.	.	.
!	!	!LO:SIC:v:t=custos G	!	!	!
8D\J	.	8F/J	.	.	.
*	*	*	*	*lig	*
!	!	!LO:LB:g=original	!	!	!
4C/	.	2G/	.	1c	.
4BB-/	.	.	.	.	.
4AA/	.	2A/	.	.	.
4GG/	.	.	.	.	.
=18-	=18-	=18-	=18-	=18-	=18-
*lig	*	*	*	*	*
1FF	.	2c/	.	1A	.
.	.	2A/	.	.	.
*	*	*	*	*Xlig	*
!	!	!	!	!LO:N:acc=#	!
1GG	.	2G/	.	1Bn	.
.	.	2d\	.	.	.
*Xlig	*	*	*	*	*
=19-	=19-	=19-	=19-	=19-	=19-
1D	.	1d	-lu-	1A	.
!	!	!	!	!LO:SIC:v:t=custos G	!
!	!	!	!	!LO:N:vis=0	!
!	!	!LO:N:vis=0	!	!LO:TX:b:i:t=aue Maria	!
!	!	!	!	!LO:TX:b:i:t=Verte.	!
1GGl;;	-ia	1dl;;	-ia	1Gl;;	.
*	*Xij	*	*Xij	*	*
!LO:PB:g=original	!	!LO:PB:g=original	!	!LO:PB:g=original	!
=20-	=20-	=20-	=20-	=20-	=20-
*M2/1	*	*M2/1	*	*M2/1	*
*met(C|)	*	*met(C|)	*	*met(C|)	*
!LO:TX:t=P:problem:w źródle przed kluczem inicjał A	!	!LO:TX:t=P:problem:w źródle przed kluczem inicjał A	!	!LO:TX:t=P:problem:w źródle przed kluczem inicjał A	!
1GG	A-	1B	A-	1G	A-
*	*	*	*	*lig	*
1AA	-ue	1.A	-ue	1E	-ue
=21-	=21-	=21-	=21-	=21-	=21-
1D	Ma-	.	.	1F	.
.	.	2A/	Ma-	.	.
*	*	*	*	*Xlig	*
1.C	-ri-	1.c	-ri-	1G	.
=22-	=22-	=22-	=22-	=22-	=22-
.	.	.	.	1G	Ma-
2BBny/	.	2d\	.	.	.
1AA	.	2.c/	.	1A	-ri-
.	.	4d\	.	.	.
=23-	=23-	=23-	=23-	=23-	=23-
*lig	*	*	*	*lig	*
1GG	.	4e\	.	1B	.
.	.	4f\	.	.	.
.	.	1g	.	.	.
1D	.	.	.	1A	.
!	!	!LO:TX:t=P:problem:♯below	!	!	!
.	.	2f#X\	.	.	.
*Xlig	*	*	*	*Xlig	*
=24-	=24-	=24-	=24-	=24-	=24-
1GG	-a	2g\	-a	1B	.
.	.	2d\	gra-	.	.
*	*	*	*	*lig	*
0rAA	.	2e\	-ti-	1c	.
.	.	2e\	-a	.	.
=25-	=25-	=25-	=25-	=25-	=25-
!	!	!LO:SIC:v:t=custos c	!	!	!
.	.	1d	ple-	1B	.
*	*	*	*	*Xlig	*
*	*	*	*	*lig	*
!	!	!LO:LB:g=original	!	!	!
2rC	.	2c#X/	.	1A	.
2D/	gra-	1d\	.	.	.
=26-	=26-	=26-	=26-	=26-	=26-
2E\	-ti-	.	.	1G	.
!	!	!LO:TX:t=P:problem:♯below	!	!	!
2E\	-a	2c#X/	.	.	.
*	*	*	*	*Xlig	*
1D	ple-	0d	.	1A	.
=27-	=27-	=27-	=27-	=27-	=27-
!	!	!	!	!LO:TX:t=P:problem:oddech jako rozdzielacz słów:global	!
!LO:SIC:v:t=custos C	!	!	!	!LO:SIC:v:t=custos G	!
1GG	-na	.	.	1G,<	-a
!LO:LB:g=original	!	!	!	!LO:LB:g=original	!
1C	gra-	1cny	-na	1G	gra-
=28-	=28-	=28-	=28-	=28-	=28-
*	*	*	*	*lig	*
2D/	-ti-	1A	gra-	1F	.
2D/	-a	.	.	.	.
*lig	*	*	*	*	*
1AA	ple-	2.A/	-ti-	1E	.
.	.	4G/	.	.	.
*	*	*	*	*Xlig	*
=29-	=29-	=29-	=29-	=29-	=29-
1D	.	1F	-a	1D	.
*Xlig	*	*	*	*	*
*lig	*	*lig	*	*lig	*
1C	.	1G	ple-	1E	.
=30-	=30-	=30-	=30-	=30-	=30-
1FF	.	1A	.	1F	.
*Xlig	*	*Xlig	*	*Xlig	*
1C	.	1c	.	1G	.
=31-	=31-	=31-	=31-	=31-	=31-
1FF,<	-na	1c	-na	1F	-ti-
1C	gra-	1.c	gra-	1G,<	-a
=32-	=32-	=32-	=32-	=32-	=32-
*	*	*	*	*lig	*
1.AA	-ti-	.	.	1A	ple-
.	.	2c/	-ti-	.	.
.	.	1.A	-a	1c	.
2AA/	-a	.	.	.	.
*	*	*	*	*Xlig	*
=33-	=33-	=33-	=33-	=33-	=33-
1E	ple-	.	.	1B	.
!	!	!LO:TX:t=P:problem:♯ above & below	!	!	!
.	.	2G#X/	ple-	.	.
*	*	*	*	*lig	*
!	!	!LO:SIC:v:t=custos A	!	!	!
1AA	-na	1A	-na	1c	.
!	!	!LO:LB:g=original	!	!	!
=34-	=34-	=34-	=34-	=34-	=34-
2rC	.	1rc	.	1B	.
*	*ij	*	*	*	*
2E\	gra-	.	.	.	.
*	*	*	*	*Xlig	*
2F\	-ti-	2rA	.	1A	.
!LO:SIC:v:t=custos E	!	!	!	!	!
2F\	-a	2A/	gra-	.	.
!LO:LB:g=original	!	!	!	!	!
=35-	=35-	=35-	=35-	=35-	=35-
*lig	*	*	*	*lig	*
1E	ple-	2B/	-ti-	1G	.
.	.	2Gny/	-a	.	.
*	*	*lig	*	*	*
!	!	!	!	!LO:SIC:v:t=custos A	!
1D	.	1d	ple-	1F	.
!	!	!	!	!LO:LB:g=original	!
*Xlig	*	*	*	*Xlig	*
=36-	=36-	=36-	=36-	=36-	=36-
*	*	*col	*	*	*
1AA	.	2.e\	.	(>1A	-na
*	*	*Xlig	*	*	*
.	.	4fny\	.	.	.
*	*	*Xcol	*	*	*
2BB,</	-na	4g\	.	1G,<)	.
*	*Xij	*	*	*	*
.	.	4f\	.	.	.
2.C/	gra-	4e\	.	.	.
.	.	4d\	.	.	.
=37-	=37-	=37-	=37-	=37-	=37-
.	.	4c/	.	1G	Do-
4C/	-ti-	8B/L	.	.	.
.	.	8A/J	.	.	.
2E\	-a	2G/	.	.	.
*	*	*lig	*	*	*
1D	ple-	1A	-na	1d	.
=38-	=38-	=38-	=38-	=38-	=38-
*	*	*	*	*lig	*
2C,</	-na	1c	.	1e	.
*	*ij	*	*	*	*
2E\	gra-	.	.	.	.
*	*	*Xlig	*	*	*
2F\	-ti-	2rA	.	1c	.
2F\	-a	2.A/	gra-	.	.
*	*	*	*	*Xlig	*
=39-	=39-	=39-	=39-	=39-	=39-
*lig	*	*	*	*	*
1D	ple-	.	.	1d	.
.	.	4G/	.	.	.
.	.	4A/	.	.	.
!	!	!LO:SIC:v:t=custos c	!	!	!
.	.	4B/	.	.	.
*	*	*	*	*lig	*
!	!	!LO:LB:g=original	!	!	!
1A	.	2c/	-ti-	1c	.
.	.	2A/	-a	.	.
*Xlig	*	*	*	*	*
=40-	=40-	=40-	=40-	=40-	=40-
*lig	*	*	*	*	*
1G	.	[<1d	ple-	1B	.
*	*	*	*	*Xlig	*
1D	.	1d]	.	1A	.
*Xlig	*	*	*	*	*
=41-	=41-	=41-	=41-	=41-	=41-
*	*	*	*	*lig	*
!LO:SIC:v:t=custos C	!	!	!	!	!
1GG	-na	2d\	-na	1B	.
*	*Xij	*	*	*	*
.	.	2g\	Do-	.	.
!LO:LB:g=original	!	!	!	!	!
2rC	.	2e\	-mi-	1c	.
2C/	Do-	2c/	-nus	.	.
*	*	*	*	*Xlig	*
=42-	=42-	=42-	=42-	=42-	=42-
2BB/	-mi-	1.g	te-	1d	.
2GG/	-nus	.	.	.	.
1AA	te-	.	.	1c	-mi-
!	!	!LO:TX:t=P:problem:♯below	!	!	!
.	.	2f#X\	.	.	.
=43-	=43-	=43-	=43-	=43-	=43-
!	!	!LO:TX:t=P:problem:oddech jako rozdzielacz słów:global	!	!	!
2GG/	-cum	2g,<\	-cum	1d,<	-nus
*	*ij	*	*ij	*	*
2G\	Do-	2d\	Do-	.	.
*	*	*	*	*lig	*
2F\	-mi-	2fny\	-mi-	1d	te-
2D/	-nus	2f\	-nus	.	.
=44-	=44-	=44-	=44-	=44-	=44-
*	*	*lig	*	*	*
!	!	!	!	!LO:SIC:v:t=custos d	!
1A	te-	1e	te-	1c	.
*	*	*	*	*Xlig	*
*	*	*	*	*lig	*
!	!	!	!	!LO:LB:g=original	!
!	!	!LO:TX:t=P:problem:♯below	!	!	!
1D	-cum	1f#X	.	1d	.
*	*	*Xlig	*	*	*
=45-	=45-	=45-	=45-	=45-	=45-
2rG	.	2g,<\	-cum	1c	.
*	*	*	*Xij	*	*
!	!	!LO:SIC:v:t=custos d	!	!	!
2A\	Do-	2c/	Do-	.	.
*	*	*	*	*Xlig	*
!	!	!LO:LB:g=original	!	!	!
2G\	-mi-	2d\	-mi-	1B	.
2E\	-nus	2e\	-nus	.	.
=46-	=46-	=46-	=46-	=46-	=46-
*lig	*	*	*	*lig	*
1F	te-	0c	te-	1A	.
!LO:SIC:v:t=custos FF	!	!	!	!	!
1C	.	.	.	1G	.
*Xlig	*	*	*	*Xlig	*
!LO:LB:g=original	!	!	!	!	!
=47-	=47-	=47-	=47-	=47-	=47-
*	*	*	*	*lig	*
1FF	-cum	1c	-cum	1F	.
*	*Xij	*	*	*	*
1.C	Be-	1.c	Be-	1G	.
*	*	*	*	*Xlig	*
=48-	=48-	=48-	=48-	=48-	=48-
.	.	.	.	1G,<	-cum
2BB/	-ne-	2d\	-ne-	.	.
1C	-di-	1e	-di-	1G	Be-
=49-	=49-	=49-	=49-	=49-	=49-
1GG	-cta	1B	-cta	1G	-ne-
1C	tu	1c	tu	1G	-[di]-
=50-	=50-	=50-	=50-	=50-	=50-
*	*	*	*	*lig	*
2rC	.	2r	.	1A	.
!	!	!LO:TX:t=P:problem:♯below	!	!	!
2AA/	in	2c#X/	in	.	.
2AA/	mu-	2c#/	mu-	1E	.
2AA/	-li-	2c#/	-li-	.	.
*	*	*	*	*Xlig	*
=51-	=51-	=51-	=51-	=51-	=51-
2.D/	-e-	1d	-e-	1F	.
4D/	-ri-	.	.	.	.
*	*	*	*	*lig	*
1C	-bus	2e\	.	1G	.
.	.	1g\	.	.	.
=52-	=52-	=52-	=52-	=52-	=52-
1rC	.	.	.	1D	.
!	!	!LO:TX:t=P:problem:♯below	!	!	!
.	.	2f#X\	-ri-	.	.
*	*	*	*	*Xlig	*
*	*	*	*	*lig	*
!	!	!LO:SIC:v:t=custos d	!	!	!
1GG	Be-	1g	-bus	1G	.
!	!	!LO:LB:g=original	!	!	!
=53-	=53-	=53-	=53-	=53-	=53-
!LO:SIC:v:t=custos AA	!	!	!	!LO:SIC:v:t=custos E	!
1D	-ne-	2re	.	1F	.
.	.	4.d\	Be-	.	.
.	.	8d\	-ne-	.	.
*	*	*	*	*Xlig	*
!LO:LB:g=original	!	!	!	!LO:LB:g=original	!
2AA/	-di-	2cny/	-di-	1E	.
2C/	-cta	2G/	-cta	.	.
=54-	=54-	=54-	=54-	=54-	=54-
*	*	*	*	*lig	*
1.BB-X	tu	1.B-X	tu	1F	.
.	.	.	.	1D	.
2D/	in	2A/	in	.	.
*	*	*	*	*Xlig	*
=55-	=55-	=55-	=55-	=55-	=55-
*	*	*	*	*lig	*
1AA	mu-	0A	mu-	1E	.
1D	-li-	.	.	1F	.
*	*	*	*	*Xlig	*
=56-	=56-	=56-	=56-	=56-	=56-
*lig	*	*	*	*lig	*
1C	-e-	1c	-li-	1G	.
1.FF	.	1.c	-e-	1A	.
*Xlig	*	*	*	*Xlig	*
=57-	=57-	=57-	=57-	=57-	=57-
*	*	*	*	*lig	*
.	.	.	.	1F	-cta
2FF/	-ri-	2c/	-ri-	.	.
1C	-bus	1c	-bus	1G,<	.
*	*	*	*	*Xlig	*
=58-	=58-	=58-	=58-	=58-	=58-
!LO:TX:a:t=+	!	!	!	!	!
2rC	.	2Bny/	in	1G,<	tu
2GG/	in	2.d\	mu-	.	.
2.G\	mu-	.	.	1G,<	in
.	.	4c/	.	.	.
.	.	4B/	.	.	.
4F\	.	4A/	.	.	.
=59-	=59-	=59-	=59-	=59-	=59-
*	*	*	*	*lig	*
4E\	.	2G/	.	1G	mu-
4D/	.	.	.	.	.
4C/	.	1c	-[li-	.	.
4BBny/	.	.	.	.	.
!LO:LB:g=original	!	!	!	!	!
1.AA	.	.	.	1A	.
!	!	!LO:SIC:v:t=custos A	!	!	!
.	.	2A/	.	.	.
*	*	*	*	*Xlig	*
!	!	!LO:PB:g=original	!	!	!
=60-	=60-	=60-	=60-	=60-	=60-
*	*	*	*	*lig	*
.	.	1.A	-e]-	1c	.
2AA/	-li-	.	.	.	.
!LO:N:vis=1.	!	!	!	!	!
2.E\	-e-	.	.	1B	.
!	!	!LO:TX:t=P:problem:♯below	!	!	!
.	.	2G#X/	ri-	.	.
!LO:N:vis=2	!	!	!	!	!
4E\	-ri-	.	.	.	.
!LO:N:vis=2	!	!	!	!	!
*	*	*	*	*Xlig	*
=61-	=61-	=61-	=61-	=61-	=61-
!	!	!	!	!LO:SIC:v:t=custos c	!
1AA	-bus	2A/	-bus	1A	-li-
.	.	2e\	in	.	.
!	!	!	!	!LO:LB:g=original	!
2r	.	2c/	mu-	1c	-e-
2A\	in	2A/	-li-	.	.
=62-	=62-	=62-	=62-	=62-	=62-
*	*	*	*	*lig	*
2G\	mu-	2B/	-e-	1d	.
2D/	-li-	2A/	-ri-	.	.
1F	-e-	1A	-bus	1c	.
*	*	*	*	*Xlig	*
=63-	=63-	=63-	=63-	=63-	=63-
1G	-ri-	2r	.	1B	.
*	*	*	*ij	*	*
.	.	2g\	in	.	.
*	*	*	*	*lig	*
1C	-bus	2e\	mu-	1c	.
.	.	2e\	-li-	.	.
=64-	=64-	=64-	=64-	=64-	=64-
*	*ij	*	*	*	*
1D	in	0.d	-e-	1A	.
*	*	*	*	*Xlig	*
!	!	!	!	!LO:TX:a:t=P:problem:♯below	!
!	!	!	!	!LO:N:acc=#	!
2BB/	mu-	.	.	1Bn	.
2GG/	-li-	.	.	.	.
=65-	=65-	=65-	=65-	=65-	=65-
1.D	-e-	.	.	1A	.
.	.	1d	-ri-	1A	-ri-
2D/	-ri-	.	.	.	.
=66-	=66-	=66-	=66-	=66-	=66-
0GGl;;	-bus	0Bl;;	-bus	0Gl;;	-bus.
*	*Xij	*	*Xij	*	*
=-	=-	=-	=-	=-	=-
*-	*-	*-	*-	*-	*-
!!!system-decoration: [(s1,s2,s3)]
!!!RDF**kern: > = above
!!!RDF**kern: < = below
!!!RDF**kern: l = terminal long
!!!EED: Antoni Szymański
!!!EST: 2021-03-21
!!!ENC: Andrzej Borzym
!!!END: 2021-03-07
